X: 4336
T: THIS WAY COME. (Martha.)
%R: air, march
N: This is version 1, for ABC software that doesn't understand tremolo notation.
B: James Kerr "Merry Melodies" v.4 p.35 #336
Z: 2016 John Chambers <jc:trillian.mit.edu>
M: 2/4
L: 1/16
K: G
|:!f!\
g4d4 | e3fg2e2 | d3ed2B2 | d2A2A2z2 |\
g4d4 | e3fg2e2 | d3ed2A2 | B2G2G2z2 :|
|:\
ddgg bbaa | ggddggff | eecc ggee | eedd dddd |\
ddeeddcc | BBddgggg | g2b2d'2b2 | b2a2a2"^D.C."z2 :|
